;FLAVOR:RepRap
;TIME:1531
;Generated with Cura_SteamEngine 2.3.1
M104 S205
M109 S205
G28 ;Home
G1 Z15.0 F6000 ;Move the platform down 15mm
;Prime the extruder
G92 E0
G1 F200 E3
G92 E0
;LAYER_COUNT:328
;LAYER:0
M107
G1 F15600 E-4
G0 F4000 X95.303 Y86.801 Z.2
;TYPE:SKIRT
G1 F15600 E0
G1 F1800 X95.857 Y86.239 E0.00394
G1 X96.261 Y85.892 E0.00659
G1 X97.488 Y84.912 E0.01443
G1 X98.129 Y84.451 E0.01837
G1 X98.853 Y84.038 E0.02253
G1 X99.414 Y83.756 E0.02566
G1 X100.136 Y83.437 E0.0296
G1 X100.607 Y83.275 E0.03208
G1 X101.726 Y82.928 E0.03793
G1 X102.491 Y82.733 E0.04187
G1 X103.583 Y82.591 E0.04736
G1 X104.994 Y82.509 E0.05441
G1 X105.992 Y82.515 E0.05939
G1 X114.286 Y83.096 E0.10087
G1 X115.07 Y83.191 E0.10481
G1 X115.84 Y83.365 E0.10875
G1 X116.589 Y83.616 E0.11269
G1 X117.309 Y83.941 E0.11663
G1 X117.992 Y84.337 E0.12057
G1 X118.631 Y84.8 E0.12451
G1 X119.146 Y85.254 E0.12793
G1 X119.378 Y85.477 E0.12954
G1 X119.919 Y86.052 E0.13348
G1 X120.399 Y86.679 E0.13741
G1 X120.813 Y87.351 E0.14135
G1 X121.157 Y88.062 E0.14529
G1 X121.324 Y88.492 E0.14759
G1 X121.401 Y88.709 E0.14874
G1 X121.627 Y89.465 E0.15268
G1 X121.775 Y90.241 E0.15662
G1 X121.85 Y91.392 E0.16238
G1 X121.813 Y95.258 E0.18166
G1 X121.765 Y96.046 E0.1856
G1 X121.638 Y96.825 E0.18954
G1 X121.433 Y97.588 E0.19348
G1 X121.152 Y98.326 E0.19742
G1 X120.797 Y99.032 E0.20136
G1 X120.374 Y99.698 E0.2053
G1 X119.884 Y100.318 E0.20924
G1 X119.382 Y100.841 E0.21286
G1 X119.03 Y101.175 E0.21528
G1 X118.43 Y101.689 E0.21922
G1 X117.782 Y102.14 E0.22316
G1 X117.091 Y102.522 E0.2271
G1 X116.365 Y102.833 E0.23104
G1 X115.611 Y103.069 E0.23498
G1 X114.838 Y103.228 E0.23892
G1 X114.169 Y103.3 E0.24228
G1 X105.578 Y103.861 E0.28523
G1 X104.789 Y103.873 E0.28917
G1 X104.279 Y103.838 E0.29172
G1 X103.151 Y103.723 E0.29737
G1 X102.37 Y103.603 E0.30131
G1 X101.344 Y103.318 E0.30663
G1 X100.025 Y102.852 E0.31361
G1 X99.294 Y102.551 E0.31755
G1 X98.363 Y102.031 E0.32287
G1 X97.386 Y101.394 E0.32869
G1 X96.747 Y100.93 E0.33263
G1 X96.29 Y100.53 E0.33566
G1 X95.767 Y100.036 E0.33925
G1 X95.221 Y99.466 E0.34319
G1 X94.788 Y98.917 E0.34667
G1 X94.053 Y97.894 E0.35296
G1 X93.626 Y97.23 E0.3569
G1 X93.267 Y96.527 E0.36084
G1 X92.982 Y95.79 E0.36478
G1 X92.772 Y95.029 E0.36872
G1 X92.641 Y94.25 E0.37266
G1 X92.591 Y93.117 E0.37832
G1 X92.601 Y92.772 E0.38004
G1 X92.664 Y91.985 E0.38398
G1 X92.806 Y91.208 E0.38792
G1 X93.026 Y90.45 E0.39186
G1 X93.322 Y89.717 E0.3958
G1 X93.69 Y89.019 E0.39974
G1 X94.077 Y88.428 E0.40326
G1 X94.808 Y87.417 E0.40948
G1 X95.303 Y86.801 E0.41343
G0 F4000 X95.615 Y87.052
G1 F1800 X96.157 Y86.506 E0.41727
G1 X96.511 Y86.205 E0.41958
G1 X97.738 Y85.225 E0.42742
G1 X98.363 Y84.777 E0.43125
G1 X99.032 Y84.395 E0.4351
G1 X99.593 Y84.113 E0.43823
G1 X100.298 Y83.804 E0.44207
G1 X100.725 Y83.657 E0.44432
G1 X101.844 Y83.31 E0.45017
G1 X102.59 Y83.121 E0.45401
G1 X103.607 Y82.99 E0.45912
G1 X105.018 Y82.908 E0.46618
G1 X105.964 Y82.914 E0.47089
G1 X114.258 Y83.495 E0.51238
G1 X115.022 Y83.589 E0.51622
G1 X115.771 Y83.761 E0.52005
G1 X116.499 Y84.01 E0.52389
G1 X117.197 Y84.333 E0.52773
G1 X117.857 Y84.728 E0.53156
G1 X118.473 Y85.188 E0.5354
G1 X118.869 Y85.542 E0.53805
G1 X119.101 Y85.765 E0.53965
G1 X119.627 Y86.326 E0.54349
G1 X120.092 Y86.939 E0.54733
G1 X120.491 Y87.596 E0.55116
G1 X120.947 Y88.625 E0.55678
G1 X121.024 Y88.842 E0.55793
G1 X121.243 Y89.58 E0.56177
G1 X121.385 Y90.336 E0.56561
G1 X121.45 Y91.388 E0.57086
G1 X121.413 Y95.254 E0.59015
G1 X121.365 Y96.022 E0.59399
G1 X121.239 Y96.78 E0.59783
G1 X121.034 Y97.522 E0.60167
G1 X120.753 Y98.238 E0.6055
G1 X120.4 Y98.921 E0.60934
G1 X119.977 Y99.564 E0.61318
G1 X119.49 Y100.159 E0.61701
G1 X119.107 Y100.551 E0.61975
G1 X118.755 Y100.885 E0.62217
G1 X118.17 Y101.385 E0.62601
G1 X117.536 Y101.821 E0.62985
G1 X116.861 Y102.189 E0.63368
G1 X116.151 Y102.485 E0.63752
G1 X115.414 Y102.706 E0.64136
G1 X114.659 Y102.849 E0.64519
G1 X114.143 Y102.901 E0.64778
G1 X105.552 Y103.462 E0.69073
G1 X104.783 Y103.472 E0.69457
G1 X104.319 Y103.44 E0.69689
G1 X103.191 Y103.325 E0.70255
G1 X102.431 Y103.207 E0.70638
G1 X101.477 Y102.94 E0.71133
G1 X100.158 Y102.474 E0.71831
G1 X99.447 Y102.181 E0.72214
G1 X98.581 Y101.696 E0.72709
G1 X97.604 Y101.059 E0.73291
G1 X96.983 Y100.606 E0.73675
G1 X96.565 Y100.24 E0.73952
G1 X96.042 Y99.746 E0.74311
G1 X95.511 Y99.189 E0.74695
G1 X95.113 Y98.684 E0.75016
G1 X94.378 Y97.661 E0.75644
G1 X93.963 Y97.014 E0.76028
G1 X93.616 Y96.327 E0.76412
G1 X93.343 Y95.608 E0.76795
G1 X93.146 Y94.864 E0.77179
G1 X93.027 Y94.104 E0.77563
G1 X92.991 Y93.129 E0.7805
G1 X93.001 Y92.784 E0.78222
G1 X93.063 Y92.017 E0.78606
G1 X93.205 Y91.261 E0.7899
G1 X93.424 Y90.524 E0.79373
G1 X93.718 Y89.813 E0.79757
G1 X94.085 Y89.137 E0.80141
G1 X94.401 Y88.662 E0.80425
G1 X95.132 Y87.651 E0.81048
G1 X95.615 Y87.052 E0.81432
G0 F4000 X95.927 Y87.304
G1 F1800 X96.456 Y86.775 E0.81805
G1 X96.76 Y86.517 E0.82004
G1 X97.987 Y85.537 E0.82787
G1 X98.596 Y85.102 E0.83161
G1 X99.212 Y84.753 E0.83514
G1 X99.773 Y84.471 E0.83827
G1 X100.459 Y84.171 E0.84201
G1 X100.844 Y84.039 E0.84404
G1 X101.963 Y83.692 E0.84988
G1 X102.688 Y83.509 E0.85361
G1 X103.63 Y83.39 E0.85835
G1 X105.041 Y83.308 E0.8654
G1 X105.936 Y83.313 E0.86987
G1 X114.23 Y83.894 E0.91135
G1 X114.973 Y83.986 E0.91508
G1 X115.701 Y84.157 E0.91881
G1 X116.407 Y84.404 E0.92255
G1 X117.082 Y84.726 E0.92628
G1 X117.72 Y85.118 E0.93001
G1 X118.311 Y85.575 E0.93374
G1 X118.592 Y85.83 E0.93563
G1 X118.824 Y86.053 E0.93724
G1 X119.335 Y86.6 E0.94097
G1 X119.784 Y87.198 E0.9447
G1 X120.168 Y87.84 E0.94844
G1 X120.57 Y88.759 E0.95344
G1 X120.647 Y88.976 E0.95459
G1 X120.859 Y89.693 E0.95832
G1 X120.993 Y90.429 E0.96205
G1 X121.05 Y91.384 E0.96682
G1 X121.013 Y95.25 E0.98611
G1 X120.966 Y95.997 E0.98985
G1 X120.839 Y96.734 E0.99358
G1 X120.635 Y97.453 E0.99731
G1 X120.354 Y98.147 E1.00104
G1 X120.002 Y98.807 E1.00477
G1 X119.581 Y99.425 E1.0085
G1 X119.097 Y99.995 E1.01223
G1 X118.831 Y100.261 E1.01411
G1 X118.479 Y100.595 E1.01653
G1 X117.91 Y101.08 E1.02026
G1 X117.292 Y101.502 E1.024
G1 X116.633 Y101.855 E1.02773
G1 X115.939 Y102.136 E1.03146
G1 X115.22 Y102.341 E1.03519
G1 X114.117 Y102.502 E1.04075
G1 X105.526 Y103.063 E1.0837
G1 X104.778 Y103.072 E1.08744
G1 X104.36 Y103.042 E1.08953
G1 X103.232 Y102.927 E1.09518
G1 X102.493 Y102.811 E1.09892
G1 X101.61 Y102.563 E1.10349
G1 X100.291 Y102.097 E1.11047
G1 X99.6 Y101.811 E1.1142
G1 X98.8 Y101.361 E1.11878
G1 X97.823 Y100.724 E1.1246
G1 X97.219 Y100.282 E1.12833
G1 X96.839 Y99.949 E1.13085
G1 X96.316 Y99.455 E1.13444
G1 X95.801 Y98.913 E1.13817
G1 X95.438 Y98.45 E1.14111
G1 X94.703 Y97.427 E1.14739
G1 X94.3 Y96.797 E1.15112
G1 X93.966 Y96.128 E1.15486
G1 X93.705 Y95.427 E1.15859
G1 X93.521 Y94.702 E1.16232
G1 X93.415 Y93.961 E1.16605
G1 X93.391 Y93.14 E1.17015
G1 X93.401 Y92.795 E1.17187
G1 X93.463 Y92.05 E1.1756
G1 X93.603 Y91.315 E1.17934
G1 X93.822 Y90.599 E1.18307
G1 X94.115 Y89.911 E1.1868
G1 X94.481 Y89.259 E1.19053
G1 X94.725 Y88.896 E1.19271
G1 X95.456 Y87.885 E1.19894
G1 X95.927 Y87.304 E1.20267
G0 F4000 X95.781 Y88.12
G1 F1800 X96.238 Y87.556 E1.20629
G1 X97.01 Y86.83 E1.21158
G1 X98.237 Y85.85 E1.21941
G1 X98.829 Y85.429 E1.22304
G1 X99.392 Y85.11 E1.22627
G1 X99.953 Y84.828 E1.2294
G1 X100.962 Y84.421 E1.23483
G1 X102.081 Y84.074 E1.24067
G1 X102.786 Y83.898 E1.2443
G1 X103.653 Y83.789 E1.24866
G1 X105.064 Y83.707 E1.25571
G1 X105.908 Y83.712 E1.25992
G1 X114.202 Y84.293 E1.3014
G1 X114.923 Y84.384 E1.30502
G1 X115.629 Y84.553 E1.30865
G1 X116.313 Y84.799 E1.31227
G1 X116.965 Y85.118 E1.31589
G1 X117.578 Y85.507 E1.31952
G1 X118.315 Y86.119 E1.3243
G1 X118.547 Y86.342 E1.3259
G1 X119.042 Y86.873 E1.32952
G1 X119.476 Y87.456 E1.33315
G1 X119.843 Y88.082 E1.33677
G1 X120.193 Y88.893 E1.34118
G1 X120.27 Y89.11 E1.34232
G1 X120.475 Y89.807 E1.34595
G1 X120.602 Y90.522 E1.34957
G1 X120.65 Y91.38 E1.35386
G1 X120.613 Y95.246 E1.37315
G1 X120.566 Y95.971 E1.37677
G1 X120.44 Y96.686 E1.38039
G1 X120.235 Y97.383 E1.38402
G1 X119.956 Y98.054 E1.38764
G1 X119.604 Y98.69 E1.39127
G1 X119.185 Y99.283 E1.39489
G1 X118.556 Y99.971 E1.39954
G1 X118.204 Y100.305 E1.40196
G1 X117.65 Y100.775 E1.40559
G1 X117.048 Y101.181 E1.40921
G1 X116.405 Y101.519 E1.41284
G1 X115.729 Y101.785 E1.41646
G1 X115.028 Y101.974 E1.42008
G1 X114.091 Y102.103 E1.4248
G1 X105.5 Y102.664 E1.46775
G1 X104.774 Y102.671 E1.47138
G1 X104.401 Y102.644 E1.47324
G1 X103.273 Y102.529 E1.4789
G1 X102.555 Y102.416 E1.48252
G1 X101.743 Y102.186 E1.48673
G1 X100.424 Y101.72 E1.49371
G1 X99.754 Y101.441 E1.49733
G1 X99.018 Y101.026 E1.50155
G1 X98.041 Y100.389 E1.50737
G1 X97.456 Y99.959 E1.51099
G1 X97.114 Y99.658 E1.51326
G1 X96.591 Y99.164 E1.51685
G1 X96.091 Y98.637 E1.52048
G1 X95.763 Y98.217 E1.52314
G1 X95.028 Y97.194 E1.52942
G1 X94.637 Y96.582 E1.53304
G1 X94.316 Y95.93 E1.53667
G1 X94.069 Y95.247 E1.54029
G1 X93.898 Y94.541 E1.54392
G1 X93.805 Y93.821 E1.54754
G1 X93.791 Y93.152 E1.55088
G1 X93.801 Y92.807 E1.5526
G1 X93.862 Y92.083 E1.55622
G1 X94.002 Y91.37 E1.55985
G1 X94.219 Y90.677 E1.56347
G1 X94.512 Y90.012 E1.5671
G1 X95.05 Y89.131 E1.57225
G1 X95.781 Y88.12 E1.57847
G0 F4000 X96.105 Y88.354
G1 F1800 X96.549 Y87.808 E1.58198
G1 X97.26 Y87.143 E1.58684
G1 X98.487 Y86.163 E1.59467
G1 X99.061 Y85.755 E1.59819
G1 X99.571 Y85.467 E1.60111
G1 X100.132 Y85.185 E1.60424
G1 X101.081 Y84.803 E1.60935
G1 X102.2 Y84.456 E1.61519
G1 X102.883 Y84.286 E1.6187
G1 X103.676 Y84.188 E1.62269
G1 X105.087 Y84.106 E1.62974
G1 X105.88 Y84.111 E1.6337
G1 X114.174 Y84.692 E1.67518
G1 X114.873 Y84.781 E1.67869
G1 X115.556 Y84.949 E1.6822
G1 X116.217 Y85.193 E1.68572
G1 X116.845 Y85.51 E1.68923
G1 X117.434 Y85.897 E1.69274
G1 X118.038 Y86.407 E1.69669
G1 X118.27 Y86.63 E1.69829
G1 X118.749 Y87.146 E1.7018
G1 X119.166 Y87.713 E1.70532
G1 X119.516 Y88.323 E1.70882
G1 X119.816 Y89.027 E1.71264
G1 X119.893 Y89.244 E1.71379
G1 X120.09 Y89.919 E1.7173
G1 X120.21 Y90.613 E1.72081
G1 X120.25 Y91.376 E1.72463
G1 X120.213 Y95.242 E1.74391
G1 X120.166 Y95.945 E1.74743
G1 X120.04 Y96.637 E1.75094
G1 X119.836 Y97.311 E1.75445
G1 X119.557 Y97.958 E1.75797
G1 X119.207 Y98.568 E1.76148
G1 X118.79 Y99.135 E1.76499
G1 X118.281 Y99.681 E1.76871
G1 X117.929 Y100.015 E1.77113
G1 X117.391 Y100.469 E1.77464
G1 X116.806 Y100.86 E1.77815
G1 X116.18 Y101.182 E1.78167
G1 X115.521 Y101.431 E1.78518
G1 X114.839 Y101.604 E1.78869
G1 X114.065 Y101.704 E1.79258
G1 X105.474 Y102.265 E1.83554
G1 X104.441 Y102.246 E1.84069
G1 X103.313 Y102.131 E1.84635
G1 X102.618 Y102.02 E1.84986
G1 X101.877 Y101.809 E1.8537
G1 X100.558 Y101.343 E1.86068
G1 X99.908 Y101.071 E1.8642
G1 X99.237 Y100.691 E1.86804
G1 X98.26 Y100.054 E1.87386
G1 X97.693 Y99.636 E1.87738
G1 X97.389 Y99.367 E1.8794
G1 X96.866 Y98.873 E1.88299
G1 X96.382 Y98.362 E1.8865
G1 X96.088 Y97.984 E1.88889
G1 X95.353 Y96.961 E1.89518
G1 X94.975 Y96.367 E1.89869
G1 X94.667 Y95.733 E1.90221
G1 X94.433 Y95.069 E1.90572
G1 X94.276 Y94.383 E1.90923
G1 X94.197 Y93.684 E1.91274
G1 X94.191 Y93.163 E1.91534
G1 X94.201 Y92.818 E1.91706
G1 X94.261 Y92.117 E1.92057
G1 X94.4 Y91.427 E1.92408
G1 X94.617 Y90.757 E1.9276
G1 X94.908 Y90.116 E1.93111
G1 X95.374 Y89.365 E1.93552
G1 X96.105 Y88.354 E1.94174
G0 F4000 X96.429 Y88.589
G1 F1800 X96.86 Y88.061 E1.94514
G1 X97.509 Y87.455 E1.94957
G1 X98.736 Y86.475 E1.95741
G1 X99.292 Y86.082 E1.9608
G1 X99.751 Y85.825 E1.96343
G1 X100.312 Y85.543 E1.96656
G1 X101.199 Y85.185 E1.97133
G1 X102.318 Y84.838 E1.97718
G1 X102.979 Y84.675 E1.98057
G1 X103.7 Y84.588 E1.9842
G1 X105.111 Y84.506 E1.99125
G1 X105.852 Y84.51 E1.99495
G1 X114.146 Y85.091 E2.03643
G1 X114.822 Y85.179 E2.03983
G1 X115.482 Y85.344 E2.04322
G1 X116.118 Y85.587 E2.04662
G1 X116.722 Y85.902 E2.05002
G1 X117.284 Y86.285 E2.05341
G1 X117.76 Y86.695 E2.05654
G1 X117.992 Y86.918 E2.05815
G1 X118.455 Y87.418 E2.06155
G1 X118.855 Y87.969 E2.06495
G1 X119.189 Y88.563 E2.06835
G1 X119.439 Y89.16 E2.07157
G1 X119.516 Y89.377 E2.07272
G1 X119.706 Y90.031 E2.07612
G1 X119.817 Y90.703 E2.07952
G1 X119.85 Y91.373 E2.08287
G1 X119.813 Y95.239 E2.10215
G1 X119.766 Y95.918 E2.10555
G1 X119.641 Y96.587 E2.10895
G1 X119.437 Y97.237 E2.11234
G1 X119.159 Y97.858 E2.11574
G1 X118.81 Y98.443 E2.11914
G1 X118.395 Y98.983 E2.12253
G1 X118.005 Y99.39 E2.12535
G1 X117.653 Y99.724 E2.12777
G1 X117.133 Y100.163 E2.13116
G1 X116.564 Y100.538 E2.13456
G1 X115.956 Y100.844 E2.13796
G1 X115.316 Y101.076 E2.14136
G1 X114.653 Y101.232 E2.14475
G1 X114.039 Y101.305 E2.14784
G1 X105.448 Y101.866 E2.19079
G1 X104.482 Y101.848 E2.19561
G1 X103.354 Y101.733 E2.20127
G1 X102.682 Y101.624 E2.20466
G1 X102.01 Y101.432 E2.20815
G1 X100.691 Y100.966 E2.21513
G1 X100.063 Y100.702 E2.21853
G1 X99.455 Y100.356 E2.22202
G1 X98.478 Y99.719 E2.22784
G1 X97.931 Y99.314 E2.23123
G1 X97.663 Y99.076 E2.23302
G1 X97.14 Y98.582 E2.23661
G1 X96.674 Y98.087 E2.24
G1 X96.413 Y97.75 E2.24213
G1 X95.678 Y96.727 E2.24841
G1 X95.314 Y96.152 E2.25181
G1 X95.019 Y95.538 E2.25521
G1 X94.799 Y94.894 E2.2586
G1 X94.656 Y94.228 E2.262
G1 X94.592 Y93.55 E2.2654
G1 X94.59 Y93.175 E2.26727
G1 X94.6 Y92.83 E2.26899
G1 X94.66 Y92.152 E2.27239
G1 X94.799 Y91.485 E2.27579
G1 X95.015 Y90.839 E2.27918
G1 X95.305 Y90.223 E2.28258
G1 X95.698 Y89.6 E2.28626
G1 X96.429 Y88.589 E2.29248
G0 F4000 X96.753 Y88.823
G1 F1800 X97.17 Y88.315 E2.29576
G1 X97.759 Y87.768 E2.29977
G1 X98.986 Y86.788 E2.3076
G1 X99.523 Y86.41 E2.31088
G1 X99.931 Y86.182 E2.31321
G1 X100.492 Y85.9 E2.31634
G1 X101.318 Y85.567 E2.32079
G1 X102.437 Y85.22 E2.32663
G1 X103.075 Y85.064 E2.32991
G1 X103.723 Y84.987 E2.33316
G1 X105.134 Y84.905 E2.34022
G1 X105.824 Y84.909 E2.34366
G1 X114.118 Y85.49 E2.38514
G1 X114.77 Y85.576 E2.38842
G1 X115.406 Y85.74 E2.3917
G1 X116.017 Y85.98 E2.39497
G1 X116.595 Y86.293 E2.39825
G1 X117.131 Y86.673 E2.40153
G1 X117.483 Y86.984 E2.40387
G1 X117.715 Y87.207 E2.40548
G1 X118.16 Y87.69 E2.40875
G1 X118.543 Y88.224 E2.41203
G1 X118.859 Y88.8 E2.41531
G1 X119.062 Y89.294 E2.41797
G1 X119.139 Y89.511 E2.41912
G1 X119.321 Y90.143 E2.4224
G1 X119.424 Y90.791 E2.42568
G1 X119.45 Y91.369 E2.42856
G1 X119.413 Y95.235 E2.44785
G1 X119.367 Y95.89 E2.45113
G1 X119.241 Y96.535 E2.45441
G1 X119.038 Y97.16 E2.45769
G1 X118.761 Y97.755 E2.46096
G1 X118.413 Y98.313 E2.46424
G1 X118.001 Y98.824 E2.46752
G1 X117.73 Y99.1 E2.46945
G1 X117.378 Y99.434 E2.47187
G1 X116.875 Y99.857 E2.47515
G1 X116.324 Y100.215 E2.47842
G1 X115.734 Y100.503 E2.4817
G1 X115.113 Y100.718 E2.48498
G1 X114.471 Y100.856 E2.48825
G1 X114.013 Y100.906 E2.49055
G1 X105.422 Y101.467 E2.5335
G1 X104.522 Y101.45 E2.538
G1 X103.394 Y101.335 E2.54365
G1 X102.746 Y101.229 E2.54693
G1 X102.143 Y101.055 E2.55006
G1 X100.824 Y100.589 E2.55704
G1 X100.219 Y100.332 E2.56032
G1 X99.674 Y100.02 E2.56345
G1 X98.697 Y99.383 E2.56927
G1 X97.938 Y98.786 E2.57409
G1 X97.415 Y98.292 E2.57768
G1 X96.966 Y97.812 E2.58096
G1 X96.738 Y97.517 E2.58282
G1 X96.003 Y96.494 E2.5891
G1 X95.652 Y95.938 E2.59238
G1 X95.372 Y95.344 E2.59566
G1 X95.166 Y94.72 E2.59894
G1 X95.038 Y94.076 E2.60221
G1 X94.99 Y93.187 E2.60665
G1 X95 Y92.842 E2.60837
G1 X95.059 Y92.187 E2.61166
G1 X95.197 Y91.545 E2.61493
G1 X95.412 Y90.924 E2.61821
G1 X95.701 Y90.334 E2.62149
G1 X96.022 Y89.834 E2.62445
G1 X96.753 Y88.823 E2.63068
G0 F4000 X97.077 Y89.057
G1 F1800 X97.479 Y88.57 E2.63383
G1 X98.009 Y88.08 E2.63743
G1 X99.236 Y87.1 E2.64526
G1 X99.754 Y86.738 E2.64842
G1 X100.11 Y86.54 E2.65045
G1 X100.671 Y86.258 E2.65358
G1 X101.436 Y85.949 E2.6577
G1 X102.555 Y85.602 E2.66354
G1 X103.169 Y85.454 E2.66669
G1 X103.746 Y85.386 E2.66959
G1 X105.157 Y85.304 E2.67664
G1 X105.796 Y85.308 E2.67983
G1 X114.09 Y85.889 E2.72131
G1 X114.717 Y85.973 E2.72447
G1 X115.328 Y86.136 E2.72762
G1 X115.913 Y86.374 E2.73077
G1 X116.464 Y86.684 E2.73393
G1 X117.206 Y87.272 E2.73865
G1 X117.438 Y87.495 E2.74026
G1 X117.865 Y87.961 E2.74341
G1 X118.23 Y88.477 E2.74656
G1 X118.527 Y89.035 E2.74972
G1 X118.685 Y89.428 E2.75183
G1 X118.762 Y89.645 E2.75298
G1 X118.935 Y90.253 E2.75613
G1 X119.031 Y90.878 E2.75929
G1 X119.05 Y91.365 E2.76172
